preferences/32/preferences-desktop-tablet.svg

<?xml version="1.0" encoding="UTF-8" standalone="no"?>
<!-- Created with Inkscape (http://www.inkscape.org/) -->

<svg
   width="32"
   height="32"
   version="1.1"
   viewBox="0 0 32 32"
   id="svg22"
   sodipodi:docname="preferences-desktop-tablet.svg"
   inkscape:version="1.1.2 (0a00cf5339, 2022-02-04)"
   xmlns:inkscape="http://www.inkscape.org/namespaces/inkscape"
   xmlns:sodipodi="http://sodipodi.sourceforge.net/DTD/sodipodi-0.dtd"
   xmlns:xlink="http://www.w3.org/1999/xlink"
   xmlns="http://www.w3.org/2000/svg"
   xmlns:svg="http://www.w3.org/2000/svg">
  <sodipodi:namedview
     id="namedview24"
     pagecolor="#ffffff"
     bordercolor="#666666"
     borderopacity="1.0"
     inkscape:showpageshadow="2"
     inkscape:pageopacity="0.0"
     inkscape:pagecheckerboard="0"
     inkscape:deskcolor="#d1d1d1"
     showgrid="false"
     inkscape:zoom="25.62"
     inkscape:cx="6.167057"
     inkscape:cy="17.681499"
     inkscape:window-width="3440"
     inkscape:window-height="1356"
     inkscape:window-x="0"
     inkscape:window-y="0"
     inkscape:window-maximized="1"
     inkscape:current-layer="svg22"
     inkscape:pageshadow="2" />
  <defs
     id="defs12">
    <linearGradient
       id="linearGradient1005-3-3"
       x1="5.2535"
       x2="9.3823996"
       y1="15.383"
       y2="2.9421"
       gradientTransform="matrix(0.99999,0,0,0.99999,1.632,-0.61743)"
       gradientUnits="userSpaceOnUse">
      <stop
         stop-color="#fa8200"
         offset="0"
         id="stop2" />
      <stop
         stop-color="#ff9600"
         offset=".36953"
         id="stop4" />
      <stop
         stop-color="#ffb400"
         offset="1"
         id="stop6" />
    </linearGradient>
    <filter
       id="filter4014"
       x="-0.062499933"
       y="-0.057692993"
       width="1.1249999"
       height="1.115386"
       color-interpolation-filters="sRGB">
      <feGaussianBlur
         stdDeviation="1.093751"
         id="feGaussianBlur9" />
    </filter>
    <linearGradient
       inkscape:collect="always"
       xlink:href="#linearGradient3487"
       id="linearGradient3403"
       gradientUnits="userSpaceOnUse"
       x1="6.9491749"
       y1="4.5549412"
       x2="11.215498"
       y2="59.052471" />
    <linearGradient
       id="linearGradient3487">
      <stop
         style="stop-color:#32373c;stop-opacity:1"
         offset="0"
         id="stop3481" />
      <stop
         id="stop3483"
         offset="0.36804965"
         style="stop-color:#1a1a1a;stop-opacity:1" />
      <stop
         style="stop-color:#31363b;stop-opacity:1"
         offset="1"
         id="stop3485" />
    </linearGradient>
    <linearGradient
       inkscape:collect="always"
       xlink:href="#linearGradient20604"
       id="linearGradient20558"
       gradientUnits="userSpaceOnUse"
       x1="25.802212"
       y1="20.373846"
       x2="25.111048"
       y2="58.912758" />
    <linearGradient
       id="linearGradient20604">
      <stop
         id="stop20598"
         offset="0"
         style="stop-color:#3d3d3d;stop-opacity:1" />
      <stop
         style="stop-color:#000000;stop-opacity:1"
         offset="0.61772454"
         id="stop20600" />
      <stop
         id="stop20602"
         offset="1"
         style="stop-color:#3d3d3d;stop-opacity:1" />
    </linearGradient>
    <filter
       inkscape:collect="always"
       style="color-interpolation-filters:sRGB"
       id="filter20720"
       x="-0.017024755"
       y="-0.016457183"
       width="1.0340491"
       height="1.0329144">
      <feGaussianBlur
         inkscape:collect="always"
         stdDeviation="0.14745661"
         id="feGaussianBlur20722" />
    </filter>
    <linearGradient
       gradientTransform="translate(0.36067797,-0.13016949)"
       xlink:href="#linearGradient4555"
       id="linearGradient4557"
       x1="43.499737"
       y1="64.011795"
       x2="44.141731"
       y2="0.30621234"
       gradientUnits="userSpaceOnUse" />
    <linearGradient
       id="linearGradient4555">
      <stop
         style="stop-color:#141618;stop-opacity:1"
         offset="0"
         id="stop4551" />
      <stop
         id="stop4559"
         offset="0.51820582"
         style="stop-color:#686868;stop-opacity:1" />
      <stop
         style="stop-color:#31363b;stop-opacity:1"
         offset="1"
         id="stop4553" />
    </linearGradient>
    <filter
       style="color-interpolation-filters:sRGB"
       id="filter4601"
       x="-0.030244762"
       width="1.0604895"
       y="-0.030100647"
       height="1.0602013">
      <feGaussianBlur
         stdDeviation="0.014790289"
         id="feGaussianBlur4603" />
    </filter>
    <linearGradient
       inkscape:collect="always"
       xlink:href="#linearGradient4303-6"
       id="linearGradient4643"
       y1="543.79797"
       y2="502.65509"
       gradientUnits="userSpaceOnUse"
       x2="0"
       gradientTransform="matrix(0.66666726,0,0,0.68055543,128.19017,175.71333)" />
    <linearGradient
       inkscape:collect="always"
       id="linearGradient4303-6">
      <stop
         style="stop-color:#c6cdd1"
         id="stop4305-7" />
      <stop
         offset="1"
         style="stop-color:#e0e5e7"
         id="stop4307-0" />
    </linearGradient>
    <linearGradient
       inkscape:collect="always"
       xlink:href="#linearGradient4177"
       id="linearGradient4183"
       y1="540.79797"
       y2="524.79797"
       x2="0"
       gradientUnits="userSpaceOnUse" />
    <linearGradient
       inkscape:collect="always"
       id="linearGradient4177">
      <stop
         style="stop-color:#f2f2f2"
         id="stop4179" />
      <stop
         offset="1"
         style="stop-color:#f9f9f9"
         id="stop4181" />
    </linearGradient>
    <linearGradient
       inkscape:collect="always"
       xlink:href="#linearGradient4204"
       id="linearGradient4202"
       x1="407.57144"
       x2="408.57144"
       gradientUnits="userSpaceOnUse" />
    <linearGradient
       inkscape:collect="always"
       id="linearGradient4204">
      <stop
         style="stop-color:#23262c"
         id="stop4206" />
      <stop
         offset="0.7"
         style="stop-color:#4e5462"
         id="stop4208" />
      <stop
         offset="1"
         style="stop-color:#23262c"
         id="stop4210" />
    </linearGradient>
    <linearGradient
       inkscape:collect="always"
       xlink:href="#linearGradient4188"
       id="linearGradient4169"
       x1="407.57144"
       x2="408.57144"
       gradientUnits="userSpaceOnUse" />
    <linearGradient
       inkscape:collect="always"
       id="linearGradient4188">
      <stop
         style="stop-color:#74868f"
         id="stop4190" />
      <stop
         offset="0.7"
         style="stop-color:#d3d9dc"
         id="stop4194" />
      <stop
         offset="1"
         style="stop-color:#d6dddf"
         id="stop4192" />
    </linearGradient>
    <linearGradient
       inkscape:collect="always"
       xlink:href="#linearGradient4222"
       id="linearGradient4220"
       x1="407.57144"
       x2="408.57144"
       gradientUnits="userSpaceOnUse" />
    <linearGradient
       inkscape:collect="always"
       id="linearGradient4222">
      <stop
         style="stop-color:#147de1"
         id="stop4224" />
      <stop
         offset="0.7"
         style="stop-color:#88bff4"
         id="stop4226" />
      <stop
         offset="1"
         style="stop-color:#3995ed"
         id="stop4228" />
    </linearGradient>
    <linearGradient
       inkscape:collect="always"
       xlink:href="#linearGradient4227"
       id="linearGradient4187"
       y1="525.79797"
       x1="400.57144"
       y2="539.79797"
       x2="414.57147"
       gradientUnits="userSpaceOnUse"
       gradientTransform="translate(-384.57143,-515.798)" />
    <linearGradient
       inkscape:collect="always"
       id="linearGradient4227">
      <stop
         style="stop-color:#292c2f"
         id="stop4229" />
      <stop
         offset="1"
         style="stop-opacity:0"
         id="stop4231" />
    </linearGradient>
    <linearGradient
       inkscape:collect="always"
       xlink:href="#linearGradient4204"
       id="linearGradient4241"
       x1="23"
       x2="24"
       gradientUnits="userSpaceOnUse" />
    <linearGradient
       inkscape:collect="always"
       xlink:href="#linearGradient883"
       id="linearGradient877"
       x1="385.57144"
       y1="544.79797"
       x2="415.57144"
       y2="544.79797"
       gradientUnits="userSpaceOnUse" />
    <linearGradient
       inkscape:collect="always"
       id="linearGradient883">
      <stop
         style="stop-color:#c6cdd1"
         id="stop879" />
      <stop
         offset="1"
         style="stop-color:#cfd7da;stop-opacity:1"
         id="stop881" />
    </linearGradient>
  </defs>
  <g
     id="g879"
     transform="matrix(0.91904748,0,0,1,-352.11794,-516.054)">
    <rect
       width="32"
       x="384.57144"
       y="517.79797"
       rx="2.108417"
       height="28"
       style="fill:url(#linearGradient4643)"
       id="rect4641"
       ry="2.0000265" />
    <rect
       width="32"
       x="384.57144"
       y="517.79797"
       height="5.00003"
       style="fill:#23262c"
       id="rect4647"
       ry="2.0000265"
       rx="2.0000117" />
    <rect
       width="3"
       x="411.5715"
       y="519.79797"
       height="1"
       style="fill:#3995ed"
       id="rect4171" />
    <rect
       width="3"
       x="386.57144"
       y="519.79797"
       height="1"
       style="fill:#ebf4fd"
       id="rect4173" />
    <rect
       width="26"
       x="387.57144"
       y="524.79797"
       height="16"
       style="fill:url(#linearGradient4183)"
       id="rect4175" />
    <rect
       width="26"
       x="387.57144"
       y="524.79797"
       height="1"
       style="fill:#cad3d6"
       id="rect4185" />
    <rect
       width="0.99998802"
       x="407.57144"
       y="526.79797"
       height="7.00003"
       style="fill:url(#linearGradient4202)"
       id="rect4159" />
    <rect
       width="1"
       x="407.57144"
       y="533.79797"
       height="5.00003"
       style="fill:url(#linearGradient4169)"
       id="rect4161" />
    <rect
       width="1"
       x="407.57144"
       y="537.79797"
       height="1"
       style="fill:url(#linearGradient4220)"
       id="rect4212" />
    <path
       style="opacity:0.2;fill:url(#linearGradient4187);fill-rule:evenodd"
       id="path4179"
       d="m 24,11 -0.5,13 4,4 2,2 H 32 V 19 l -2,-2 z"
       transform="translate(384.57143,515.798)" />
    <path
       style="fill:url(#linearGradient4241);fill-rule:evenodd"
       id="path4230"
       d="m 23,23 v 0.300781 L 23.5,24 24,23.300781 V 23 Z"
       transform="translate(384.57143,515.798)" />
    <rect
       width="29.999989"
       x="385.57144"
       y="543.79797"
       height="2.0000265"
       style="fill:url(#linearGradient877);fill-opacity:1"
       id="rect4645"
       ry="0.99998683" />
  </g>
  <path
     style="display:inline;mix-blend-mode:normal;fill:url(#linearGradient3403);fill-opacity:1;stroke:url(#linearGradient20558);stroke-width:1.16242;stroke-linecap:butt;stroke-linejoin:round;stroke-miterlimit:4;stroke-dasharray:none;stroke-opacity:1;filter:url(#filter20720)"
     d="M 4.7043071,3.9814882 4.6913695,60.80196 H 58.59546 l 1.022155,-2.866369 c 0,0 -23.87537,0.766388 -32.844441,-4.140386 C 16.257548,48.042344 11.401114,4.0978197 11.401114,4.0978197 Z"
     id="path1686"
     sodipodi:nodetypes="ccccscc"
     transform="matrix(0.49530655,0,0,0.49530655,0.32409325,0.23228439)"
     inkscape:label="folder" />
  <rect
     style="display:inline;fill:none;fill-opacity:1;stroke:url(#linearGradient4557);stroke-width:3.71366;stroke-linejoin:round;stroke-miterlimit:7.8;stroke-dasharray:none;stroke-opacity:0.995146;filter:url(#filter4601)"
     id="rect4539"
     width="62.567089"
     height="62.866646"
     x="1.0323594"
     y="0.59551275"
     ry="6.2447233"
     rx="5.8029528"
     transform="matrix(0.46399463,0,0,0.4630489,1.1562887,1.2331482)"
     inkscape:label="contour" />
</svg>

<svg width="32" height="32" version="1.1" viewBox="0 0 32 32" xmlns="http://www.w3.org/2000/svg" xmlns:xlink="http://www.w3.org/1999/xlink">
<defs>
<linearGradient id="linearGradient3403" x1="6.9492" x2="11.215" y1="4.5549" y2="59.052" gradientUnits="userSpaceOnUse">
<stop style="stop-color:#32373c" offset="0"/>
<stop style="stop-color:#1a1a1a" offset=".36805"/>
<stop style="stop-color:#31363b" offset="1"/>
</linearGradient>
<linearGradient id="linearGradient20558" x1="25.802" x2="25.111" y1="20.374" y2="58.913" gradientUnits="userSpaceOnUse">
<stop style="stop-color:#3d3d3d" offset="0"/>
<stop offset=".61772"/>
<stop style="stop-color:#3d3d3d" offset="1"/>
</linearGradient>
<linearGradient id="linearGradient4557" x1="43.5" x2="44.142" y1="64.012" y2=".30621" gradientTransform="translate(.36068 -.13017)" gradientUnits="userSpaceOnUse">
<stop style="stop-color:#141618" offset="0"/>
<stop style="stop-color:#686868" offset=".51821"/>
<stop style="stop-color:#31363b" offset="1"/>
</linearGradient>
<linearGradient id="linearGradient4643" x2="0" y1="543.8" y2="502.66" gradientTransform="matrix(.66667 0 0 .68056 128.19 175.71)" gradientUnits="userSpaceOnUse">
<stop style="stop-color:#c6cdd1" offset="0"/>
<stop style="stop-color:#e0e5e7" offset="1"/>
</linearGradient>
<linearGradient id="linearGradient4183" x2="0" y1="540.8" y2="524.8" gradientUnits="userSpaceOnUse">
<stop style="stop-color:#f2f2f2" offset="0"/>
<stop style="stop-color:#f9f9f9" offset="1"/>
</linearGradient>
<linearGradient id="linearGradient4202" x1="407.57" x2="408.57" gradientUnits="userSpaceOnUse" xlink:href="#linearGradient4204"/>
<linearGradient id="linearGradient4204">
<stop style="stop-color:#23262c" offset="0"/>
<stop style="stop-color:#4e5462" offset=".7"/>
<stop style="stop-color:#23262c" offset="1"/>
</linearGradient>
<linearGradient id="linearGradient4169" x1="407.57" x2="408.57" gradientUnits="userSpaceOnUse">
<stop style="stop-color:#74868f" offset="0"/>
<stop style="stop-color:#d3d9dc" offset=".7"/>
<stop style="stop-color:#d6dddf" offset="1"/>
</linearGradient>
<linearGradient id="linearGradient4220" x1="407.57" x2="408.57" gradientUnits="userSpaceOnUse">
<stop style="stop-color:#147de1" offset="0"/>
<stop style="stop-color:#88bff4" offset=".7"/>
<stop style="stop-color:#3995ed" offset="1"/>
</linearGradient>
<linearGradient id="linearGradient4187" x1="400.57" x2="414.57" y1="525.8" y2="539.8" gradientTransform="translate(-384.57 -515.8)" gradientUnits="userSpaceOnUse">
<stop style="stop-color:#292c2f" offset="0"/>
<stop style="stop-opacity:0" offset="1"/>
</linearGradient>
<linearGradient id="linearGradient4241" x1="23" x2="24" gradientUnits="userSpaceOnUse" xlink:href="#linearGradient4204"/>
<linearGradient id="linearGradient877" x1="385.57" x2="415.57" y1="544.8" y2="544.8" gradientUnits="userSpaceOnUse">
<stop style="stop-color:#c6cdd1" offset="0"/>
<stop style="stop-color:#cfd7da" offset="1"/>
</linearGradient>
</defs>
<g transform="matrix(.91905 0 0 1 -352.12 -516.05)">
<rect x="384.57" y="517.8" width="32" height="28" rx="2.1084" ry="2" style="fill:url(#linearGradient4643)"/>
<rect x="384.57" y="517.8" width="32" height="5" rx="2" ry="2" style="fill:#23262c"/>
<rect x="411.57" y="519.8" width="3" height="1" style="fill:#3995ed"/>
<rect x="386.57" y="519.8" width="3" height="1" style="fill:#ebf4fd"/>
<rect x="387.57" y="524.8" width="26" height="16" style="fill:url(#linearGradient4183)"/>
<rect x="387.57" y="524.8" width="26" height="1" style="fill:#cad3d6"/>
<rect x="407.57" y="526.8" width=".99999" height="7" style="fill:url(#linearGradient4202)"/>
<rect x="407.57" y="533.8" width="1" height="5" style="fill:url(#linearGradient4169)"/>
<rect x="407.57" y="537.8" width="1" height="1" style="fill:url(#linearGradient4220)"/>
<path transform="translate(384.57 515.8)" d="m24 11-0.5 13 6 6h2.5v-11l-2-2z" style="fill-rule:evenodd;fill:url(#linearGradient4187);opacity:.2"/>
<path transform="translate(384.57 515.8)" d="m23 23v0.30078l0.5 0.69922 0.5-0.69922v-0.30078z" style="fill-rule:evenodd;fill:url(#linearGradient4241)"/>
<rect x="385.57" y="543.8" width="30" height="2" ry=".99999" style="fill:url(#linearGradient877)"/>
</g>
<path transform="matrix(.49531 0 0 .49531 .32409 .23228)" d="m4.7043 3.9815-0.012938 56.82h53.904l1.0222-2.8664s-23.875 0.76639-32.844-4.1404c-10.516-5.7529-15.372-49.697-15.372-49.697z" style="fill:url(#linearGradient3403);mix-blend-mode:normal;stroke-linejoin:round;stroke-width:1.1624;stroke:url(#linearGradient20558)"/>
<rect transform="matrix(.46399 0 0 .46305 1.1563 1.2331)" x="1.0324" y=".59551" width="62.567" height="62.867" rx="5.803" ry="6.2447" style="fill:none;stroke-linejoin:round;stroke-miterlimit:7.8;stroke-opacity:.99515;stroke-width:3.7137;stroke:url(#linearGradient4557)"/>
</svg>
